src/assets/mh-icons/Charge_Blade_rank_01.svg

<?xml version="1.0" encoding="UTF-8" standalone="no"?>
<svg
   width="100%"
   height="100%"
   viewBox="0 0 64 64"
   version="1.1"
   xml:space="preserve"
   style="fill-rule:evenodd;clip-rule:evenodd;stroke-linejoin:round;stroke-miterlimit:2;"
   id="svg1261"
   sodipodi:docname="Charge_Blade_rank_01.svg"
   inkscape:version="1.2.2 (732a01da63, 2022-12-09)"
   xmlns:inkscape="http://www.inkscape.org/namespaces/inkscape"
   xmlns:sodipodi="http://sodipodi.sourceforge.net/DTD/sodipodi-0.dtd"
   xmlns="http://www.w3.org/2000/svg"
   xmlns:svg="http://www.w3.org/2000/svg"><defs
   id="defs1265">
        
    
            
        
                
                
                
                
                
            </defs><sodipodi:namedview
   id="namedview1263"
   pagecolor="#505050"
   bordercolor="#eeeeee"
   borderopacity="1"
   inkscape:showpageshadow="0"
   inkscape:pageopacity="0"
   inkscape:pagecheckerboard="0"
   inkscape:deskcolor="#505050"
   showgrid="false"
   inkscape:zoom="16.046875"
   inkscape:cx="32.062317"
   inkscape:cy="31.968841"
   inkscape:window-width="3440"
   inkscape:window-height="1377"
   inkscape:window-x="-8"
   inkscape:window-y="-8"
   inkscape:window-maximized="1"
   inkscape:current-layer="svg1261" />
    <path
   id="background"
   style="fill-opacity:0.76;fill:none;stroke:#000000;stroke-opacity:1;stroke-width:4;stroke-dasharray:none"
   d="M 8 6 C 8 6 10 9.0820176 10 11.041016 L 10 29 L 10 30 L 17 37 L 22 37 L 22 35.007812 L 22 31 L 25.400391 27.599609 L 30 30.666016 L 30 35 C 29.000001 35 29 36 29 36 L 29 39 L 29 42 L 28 42 C 28 42 27 42.000001 27 43 L 27 44 C 27 44.999999 28 45 28 45 L 28 47 C 28 47 27 47.000001 27 48 C 27 48.999999 28 49 28 49 L 28.970703 49 L 29 49.029297 L 29 52 L 30 52 L 30 56 L 30 57 L 30 58 L 34 58 L 34 57 L 34 56 L 34 52 L 34 51 L 36 51 L 36 50 C 36 50 37 49.999999 37 49 L 37 48 C 37 47.000001 36 47 36 47 L 36 45 C 36 45 37 44.999999 37 44 L 37 43 C 37 42.000001 36 42 36 42 L 36 40 C 36 40 37 39.999999 37 39 C 37 38.000001 36 38 36 38 L 36 36.029297 L 34.998047 36.009766 C 34.998051 36.009275 35 36 35 36 C 35 36 34.999999 35 34 35 L 34 30.666016 L 38.599609 27.599609 L 42 31 L 42 35.007812 L 42 37 L 47 37 L 54 30 L 54 29 L 54 11.041016 C 54 9.0820176 56 6 56 6 L 54 6 L 46 6 L 40 6 L 34 12 L 30 12 L 24 6 L 18 6 L 11 6 L 8 6 z " />
<g
   transform="matrix(1,0,0,1,0,-576)"
   id="g2850">
        <g
   transform="matrix(1,0,0,1,-576,-384)"
   id="g2848">
            <g
   id="g2846">
                <path
   id="base"
   d="m 606,972 h 4 l 6,-6 h 6 v 25 h -4 l -4,-4 -4,3 v 5.992 l 2,0.038 V 1011 h -2 v 6 h -4 v -5 h -1 v -2.97 l -1,-1.01 v -5 l 1,-1.02 v -6 h 1 v -6 l -4,-3 -4,4 h -4 v -25 h 6 z"
   style="display:inline;fill:#1f1f1f;fill-opacity:1"
   inkscape:label="base" />
                <path
   id="path2838"
   d="m 600,975 h 16 v 9.95 l -8,5.05 -8,-5.05 z"
   style="display:inline;fill:#1a1a1a" />
                <path
   id="path2840"
   d="m 610,1016 h -4 v 2 h 4 z m 3,-8 c 0,-1 -1,-1 -1,-1 h -1 v 3 h 1 c 0,0 1,0 1,-1 z m -8,-1 h -1 c 0,0 -1,0 -1,1 0,1 1,1 1,1 h 1 z m -2,-4 c 0,-1 1,-1 1,-1 h 1 v 3 h -1 c 0,0 -1,0 -1,-1 z m 8,-5 h 1 c 0,0 1,0 1,1 0,1 -1,1 -1,1 h -1 z"
   style="display:inline;fill:#767676" />
                <path
   id="path2842"
   d="m 616,966 h 14 v 23 l -7,7 h -5 v -8 h 2 v -17 h -4 z m -16,0 h -14 v 23 l 7,7 h 5 v -8 h -2 v -17 h 4 z m 3,12 h 10 v 4.95 l -5,3.05 -5,-3.05 z"
   style="display:inline;fill:#909090" />
                <path
   id="path2844"
   d="m 608,1010 h 2 v 2 h -2 z m 0,-10 h 2 v 2 h 2 c 0,0 1,0 1,1 v 1 c 0,1 -1,1 -1,1 h -2 v 2 h -2 z m -3,-4 c 0,0 0,-1 1,-1 h 4 c 1,0 1,1 1,1 0,0 0,1 -1,1 h -3 v 3 c 0,0 -2,0 -2,-1 z m 24,-30 h 3 c 0,0 -2,3.082 -2,5.041 V 990 l -7,7 h -5 v -1.993 c 0,0 0,-0.007 1,-0.007 1,0 9,-7 9,-8 0,-1 -5,-5 -5,-5 0,0 5,-4 5,-5 0,-1 -5,-5 -5,-5 0,0 6,-3 6,-6 z m -42,0 h -3 c 0,0 2,3.082 2,5.041 V 990 l 7,7 h 5 v -1.993 c 0,0 0,-0.014 -1,-0.007 -1,0.007 -9,-7 -9,-8 0,-1 5,-5 5,-5 0,0 -5,-4 -5,-5 0,-1 5,-5 5,-5 0,0 -6,-3 -6,-6 z m 12,8 h 18 v 12 l -9,6 -9,-6 z m 2,2 h 14 v 7.95 l -7,5.05 -7,-5.05 z"
   style="display:inline;fill:#b5b5b5" />
            </g>
        </g>
    </g></svg>

<?xml version="1.0" encoding="UTF-8" standalone="no"?>
<svg
   width="100%"
   height="100%"
   viewBox="0 0 64 64"
   version="1.1"
   xml:space="preserve"
   style="fill-rule:evenodd;clip-rule:evenodd;stroke-linejoin:round;stroke-miterlimit:2;"
   id="svg1261"
   sodipodi:docname="Charge_Blade_rank_01.svg"
   inkscape:version="1.2.2 (732a01da63, 2022-12-09)"
   xmlns:inkscape="http://www.inkscape.org/namespaces/inkscape"
   xmlns:sodipodi="http://sodipodi.sourceforge.net/DTD/sodipodi-0.dtd"
   xmlns="http://www.w3.org/2000/svg"
   xmlns:svg="http://www.w3.org/2000/svg"><defs
   id="defs1265">
        
    
            
        
                
                
                
                
                
            </defs><sodipodi:namedview
   id="namedview1263"
   pagecolor="#505050"
   bordercolor="#eeeeee"
   borderopacity="1"
   inkscape:showpageshadow="0"
   inkscape:pageopacity="0"
   inkscape:pagecheckerboard="0"
   inkscape:deskcolor="#505050"
   showgrid="false"
   inkscape:zoom="16.046875"
   inkscape:cx="32"
   inkscape:cy="31.968841"
   inkscape:window-width="3440"
   inkscape:window-height="1377"
   inkscape:window-x="-8"
   inkscape:window-y="-8"
   inkscape:window-maximized="1"
   inkscape:current-layer="svg1261" />
    <path
   id="background"
   style="fill-opacity:0.76;fill:none;stroke:#000000;stroke-opacity:1;stroke-width:4;stroke-dasharray:none"
   d="M 8 6 C 8 6 10 9.0820176 10 11.041016 L 10 29 L 10 30 L 17 37 L 22 37 L 22 35.007812 L 22 31 L 25.400391 27.599609 L 30 30.666016 L 30 35 C 29.000001 35 29 36 29 36 L 29 39 L 29 42 L 28 42 C 28 42 27 42.000001 27 43 L 27 44 C 27 44.999999 28 45 28 45 L 28 47 C 28 47 27 47.000001 27 48 C 27 48.999999 28 49 28 49 L 28.970703 49 L 29 49.029297 L 29 52 L 30 52 L 30 56 L 30 57 L 30 58 L 34 58 L 34 57 L 34 56 L 34 52 L 34 51 L 36 51 L 36 50 C 36 50 37 49.999999 37 49 L 37 48 C 37 47.000001 36 47 36 47 L 36 45 C 36 45 37 44.999999 37 44 L 37 43 C 37 42.000001 36 42 36 42 L 36 40 C 36 40 37 39.999999 37 39 C 37 38.000001 36 38 36 38 L 36 36.029297 L 34.998047 36.009766 C 34.998051 36.009275 35 36 35 36 C 35 36 34.999999 35 34 35 L 34 30.666016 L 38.599609 27.599609 L 42 31 L 42 35.007812 L 42 37 L 47 37 L 54 30 L 54 29 L 54 11.041016 C 54 9.0820176 56 6 56 6 L 54 6 L 46 6 L 40 6 L 34 12 L 30 12 L 24 6 L 18 6 L 11 6 L 8 6 z " />
<g
   transform="matrix(1,0,0,1,0,-576)"
   id="g2850">
        <g
   transform="matrix(1,0,0,1,-576,-384)"
   id="g2848">
            <g
   id="g2846">
                <path
   id="path2836"
   d="M606,972L610,972L616,966L622,966L622,991L618,991L614,987L610,990L610,995.992L612,996.03L612,1011L610,1011L610,1017L606,1017L606,1012L605,1012L605,1009.03L604,1008.02L604,1003.02L605,1002L605,996L606,996L606,990L602,987L598,991L594,991L594,966L600,966L606,972Z"
   style="fill-opacity:1;fill:#1f1f1f" />
                <path
   id="path2838"
   d="M600,975L616,975L616,984.95L608,990L600,984.95L600,975Z"
   style="fill:rgb(26,26,26);" />
                <path
   id="path2840"
   d="M610,1016L606,1016L606,1018L610,1018L610,1016ZM613,1008C613,1007 612,1007 612,1007L611,1007L611,1010L612,1010C612,1010 613,1010 613,1009L613,1008ZM605,1007L604,1007C604,1007 603,1007 603,1008C603,1009 604,1009 604,1009L605,1009L605,1007ZM603,1003C603,1002 604,1002 604,1002L605,1002L605,1005L604,1005C604,1005 603,1005 603,1004L603,1003ZM611,998L612,998C612,998 613,998 613,999C613,1000 612,1000 612,1000L611,1000L611,998Z"
   style="fill:rgb(118,118,118);" />
                <path
   id="path2842"
   d="M616,966L630,966L630,989L623,996L618,996L618,988L620,988L620,971L616,971L616,966ZM600,966L586,966L586,989L593,996L598,996L598,988L596,988L596,971L600,971L600,966ZM603,978L613,978L613,982.95L608,986L603,982.95L603,978Z"
   style="fill:rgb(144,144,144);" />
                <path
   id="path2844"
   d="M608,1010L610,1010L610,1012L608,1012L608,1010ZM608,1000L610,1000L610,1002L612,1002C612,1002 613,1002 613,1003L613,1004C613,1005 612,1005 612,1005L610,1005L610,1007L608,1007L608,1000ZM605,996C605,996 605,995 606,995L610,995C611,995 611,996 611,996C611,996 611,997 610,997L607,997L607,1000C607,1000 605,1000 605,999L605,996ZM629,966L632,966C632,966 630,969.082 630,971.041L630,990L623,997L618,997L618,995.007C618,995.007 618,995 619,995C620,995 628,988 628,987C628,986 623,982 623,982C623,982 628,978 628,977C628,976 623,972 623,972C623,972 629,969 629,966ZM587,966L584,966C584,966 586,969.082 586,971.041L586,990L593,997L598,997L598,995.007C598,995.007 598,994.993 597,995C596,995.007 588,988 588,987C588,986 593,982 593,982C593,982 588,978 588,977C588,976 593,972 593,972C593,972 587,969 587,966ZM599,974L617,974L617,986L608,992L599,986L599,974ZM601,976L615,976L615,983.95L608,989L601,983.95L601,976Z"
   style="fill:rgb(181,181,181);" />
            </g>
        </g>
    </g></svg>
